packages/foundations/assets/icons/functional/images/business & payment/discount_16.svg

<svg width="16" height="16" viewBox="0 0 16 16" fill="none" xmlns="http://www.w3.org/2000/svg">
<g clip-path="url(#clip0_184_37)">
<path fill-rule="evenodd" clip-rule="evenodd" d="M8.03298 1.37826C8.27469 1.37543 8.51391 1.42741 8.73266 1.53029C8.95141 1.63316 9.144 1.78427 9.29598 1.97226L9.77098 2.55726L10.535 2.37726C10.7712 2.31961 11.0172 2.31448 11.2557 2.36222C11.4942 2.40997 11.7192 2.50943 11.9151 2.65359C12.1109 2.79776 12.2728 2.98312 12.3892 3.19662C12.5056 3.41011 12.5738 3.64655 12.589 3.88926L12.629 4.63726L13.348 4.93726C13.974 5.19726 14.4 5.80726 14.4 6.48826C14.4 6.79726 14.303 7.10626 14.124 7.38026L13.718 7.99926L14.123 8.66826C14.288 8.94026 14.383 9.25026 14.383 9.57526C14.3812 9.90576 14.2796 10.228 14.0916 10.4998C13.9035 10.7716 13.6377 10.9802 13.329 11.0983L12.629 11.3613L12.565 12.1433C12.499 12.9523 11.834 13.6843 10.908 13.6843C10.761 13.6843 10.615 13.6693 10.487 13.6343L9.77098 13.4413L9.25798 14.0313C8.90198 14.4413 8.52798 14.6033 7.96798 14.6213C7.48798 14.6353 7.00798 14.4013 6.70398 14.0263L6.22898 13.4413L5.46498 13.6213C5.22872 13.6789 4.9827 13.684 4.74425 13.6363C4.5058 13.5886 4.28072 13.4891 4.08488 13.3449C3.88903 13.2008 3.72719 13.0154 3.61076 12.8019C3.49432 12.5884 3.42612 12.352 3.41098 12.1093L3.37098 11.3613L2.65098 11.0643C2.01098 10.7983 1.59998 10.2083 1.59998 9.52626C1.59998 9.20126 1.69698 8.89226 1.87598 8.61826L2.28198 7.99926L1.87198 7.31626C1.70743 7.04723 1.61895 6.73861 1.61598 6.42326C1.61782 6.09264 1.71954 5.7703 1.90781 5.49851C2.09608 5.22673 2.3621 5.01819 2.67098 4.90026L3.37098 4.63726L3.45098 3.85726C3.48398 2.98026 4.23098 2.31426 5.09198 2.31426C5.23898 2.31426 5.38498 2.32926 5.51298 2.36426L6.22898 2.55726L6.73898 1.96326C7.08498 1.55926 7.47198 1.39526 8.03298 1.37826ZM8.01598 2.96426L7.51598 3.56826C7.31375 3.81396 7.04437 3.99548 6.74072 4.09066C6.43706 4.18584 6.11227 4.19057 5.80598 4.10426L5.09198 3.90626L5.04398 3.93826L4.99798 4.68526C4.98175 5.00317 4.87297 5.30942 4.685 5.56632C4.49703 5.82322 4.23807 6.01959 3.93998 6.13126L3.23998 6.39126L3.22398 6.45626L3.62998 7.09126C3.79398 7.34826 3.88998 7.65826 3.88998 7.96726C3.88998 8.29126 3.79398 8.60126 3.61398 8.87526L3.20798 9.49326L3.22398 9.55826L3.92398 9.83126C4.22037 9.94547 4.47745 10.1429 4.66426 10.3998C4.85108 10.6567 4.95967 10.9621 4.97698 11.2793L5.01098 12.0273L5.05998 12.0603L5.77298 11.8763C5.92298 11.8383 6.05098 11.8163 6.19698 11.8163C6.70098 11.8163 7.16998 12.0453 7.47998 12.4313L7.95098 13.0183H8.01598L8.48698 12.4313C8.79698 12.0453 9.26697 11.8333 9.73798 11.8333C9.88398 11.8333 10.046 11.8533 10.194 11.8933L10.908 12.0933L10.956 12.0603L11.002 11.3133C11.0179 10.9953 11.1266 10.6889 11.3146 10.432C11.5026 10.175 11.7617 9.97871 12.06 9.86726L12.76 9.60726L12.776 9.54226L12.37 8.90726C12.2025 8.64561 12.1123 8.34193 12.11 8.03126C12.11 7.70726 12.206 7.39726 12.386 7.12326L12.792 6.50526L12.776 6.44026L12.076 6.16726C11.7796 6.05305 11.5225 5.85562 11.3357 5.59873C11.1489 5.34183 11.0403 5.03643 11.023 4.71926L10.989 3.97126L10.94 3.93826L10.224 4.13226C9.91546 4.20963 9.59125 4.19707 9.28965 4.09607C8.98805 3.99506 8.72167 3.80983 8.52198 3.56226L8.04898 2.98026C8.04898 2.96426 8.03198 2.96426 8.01598 2.96426ZM5.59598 6.40726C5.59493 6.30161 5.61469 6.19679 5.65415 6.09878C5.69361 6.00077 5.75199 5.9115 5.82595 5.83605C5.97532 5.68368 6.17911 5.59688 6.39248 5.59476C6.60584 5.59264 6.81131 5.67536 6.96369 5.82474C7.11606 5.97411 7.20285 6.17789 7.20498 6.39126C7.2071 6.60476 7.12432 6.81036 6.97485 6.96282C6.82539 7.11529 6.62147 7.20214 6.40798 7.20426C6.19448 7.20638 5.98888 7.12361 5.83641 6.97414C5.68394 6.82467 5.5971 6.62076 5.59498 6.40726H5.59598ZM5.67698 9.20126L9.20198 5.66026L10.339 6.79726L6.79798 10.3223L5.67698 9.20126ZM8.79598 9.59126C8.79598 9.15226 9.15298 8.79526 9.59198 8.79526C9.75166 8.79368 9.9082 8.83969 10.0416 8.92742C10.1751 9.01515 10.2794 9.14064 10.3412 9.28787C10.403 9.4351 10.4196 9.59742 10.3889 9.75412C10.3581 9.91082 10.2814 10.0548 10.1684 10.1677C10.0555 10.2807 9.91154 10.3574 9.75484 10.3882C9.59813 10.4189 9.43582 10.4023 9.28859 10.3405C9.14135 10.2786 9.01587 10.1744 8.92814 10.0409C8.8404 9.90749 8.79439 9.75095 8.79598 9.59126Z" fill="#1A1C1F"/>
</g>
<defs>
<clipPath id="clip0_184_37">
<rect width="16" height="16" fill="white"/>
</clipPath>
</defs>
</svg>

<svg xmlns="http://www.w3.org/2000/svg" width="16" height="16" fill="none"><g clip-path="url(#a)"><path fill="#1A1C1F" fill-rule="evenodd" d="M8.033 1.378a1.6 1.6 0 0 1 1.263.594l.475.585.764-.18a1.663 1.663 0 0 1 2.054 1.512l.04.748.719.3c.626.26 1.052.87 1.052 1.551 0 .31-.097.618-.276.892l-.406.62.405.668c.165.272.26.582.26.907a1.64 1.64 0 0 1-1.054 1.523l-.7.263-.064.782c-.066.81-.731 1.541-1.657 1.541-.147 0-.293-.015-.421-.05l-.716-.193-.513.59c-.356.41-.73.572-1.29.59-.48.014-.96-.22-1.264-.595l-.475-.585-.764.18a1.664 1.664 0 0 1-2.054-1.512l-.04-.748-.72-.297c-.64-.266-1.051-.856-1.051-1.538 0-.325.097-.634.276-.908L2.282 8l-.41-.683a1.74 1.74 0 0 1-.256-.893A1.64 1.64 0 0 1 2.671 4.9l.7-.263.08-.78c.033-.877.78-1.543 1.641-1.543.147 0 .293.015.421.05l.716.193.51-.594c.346-.404.733-.568 1.294-.585m-.017 1.586-.5.604a1.64 1.64 0 0 1-1.71.536l-.714-.198-.048.032-.046.747A1.63 1.63 0 0 1 3.94 6.131l-.7.26-.016.065.406.635c.164.257.26.567.26.876 0 .324-.096.634-.276.908l-.406.618.016.065.7.273a1.65 1.65 0 0 1 1.053 1.448l.034.748.049.033.713-.184c.15-.038.278-.06.424-.06.504 0 .973.23 1.283.615l.471.587h.065l.471-.587c.31-.386.78-.598 1.251-.598.146 0 .308.02.456.06l.714.2.048-.033.046-.747a1.63 1.63 0 0 1 1.058-1.446l.7-.26.016-.065-.406-.635a1.65 1.65 0 0 1-.26-.876c0-.324.096-.634.276-.908l.406-.618-.016-.065-.7-.273a1.65 1.65 0 0 1-1.053-1.448l-.034-.748-.049-.033-.716.194a1.67 1.67 0 0 1-1.702-.57l-.473-.582c0-.016-.017-.016-.033-.016m-2.42 3.443a.805.805 0 1 1 1.611-.016.805.805 0 0 1-1.612.016zm.081 2.794 3.525-3.54 1.137 1.136-3.541 3.525zm3.119.39c0-.439.357-.796.796-.796a.804.804 0 1 1-.796.796" clip-rule="evenodd"/></g><defs><clipPath id="a"><path fill="#fff" d="M0 0h16v16H0z"/></clipPath></defs></svg>
